src/images_karasa_jaga_svg/cmd/sc_navigationbar.svg

<svg height="16" viewBox="0 0 16 16" width="16" xmlns="http://www.w3.org/2000/svg" xmlns:xlink="http://www.w3.org/1999/xlink"><linearGradient id="a" gradientTransform="matrix(0 1 -1 0 130.5777 .237576)" gradientUnits="userSpaceOnUse" x1="26.221916" x2="96.5784" y1="59.536545" y2="57.715343"><stop offset="0" stop-color="#fff"/><stop offset="1" stop-color="#bbb"/></linearGradient><filter id="b" color-interpolation-filters="sRGB" height="1.011497" width="1.00824" x="-.00412" y="-.005748"><feGaussianBlur stdDeviation=".13885547"/></filter><linearGradient id="c" gradientTransform="matrix(.93615599 0 0 .96248373 3.843981 -6.452543)" gradientUnits="userSpaceOnUse" x1="72.618614" x2="73.819366" y1="101.35709" y2="47.875233"><stop offset="0" stop-color="#b3b3b7"/><stop offset="1" stop-color="#e5e5e5" stop-opacity=".996078"/></linearGradient><filter id="d" color-interpolation-filters="sRGB" height="1.045747" width="1.050486" x="-.025243" y="-.022874"><feGaussianBlur stdDeviation=".38122712"/></filter><g transform="scale(.125)"><path d="m14.820178 23.999992v.04989h-3.121853c-4.2373601 0-11.69832406 3.821301-11.69832406 8.566818v62.768284c0 4.745536 7.46096396 8.565106 11.69832406 8.565106h3.121853v.04991h49.180833 49.178809v-.0499h3.12185c4.23736 0 11.69833-3.81957 11.69833-8.565108v-62.768298c0-4.745515-7.46097-8.566817-11.69833-8.566817h-3.12185v-.04988h-49.178809z" fill="#8b8b91" fill-opacity=".995861"/><path d="m19.005316 32.734903v.03923h-2.647565c-3.593265-.000004-8.3577515 2.984839-8.3577515 6.692769v49.044122c0 3.707941 4.7644865 6.692786 8.3577515 6.692786h2.647565v.03927h42.938841.327288 46.683465v-.03927h2.64758c3.59325 0 8.35773-2.984845 8.35773-6.692786v-49.044104c0-3.707928-4.76448-6.692772-8.35773-6.692772h-2.64758v-.03922h-46.683465-.327288z" fill="url(#c)"/><path d="m16.195312 22.822266c-.105581.000012-.21046.01716-.310546.05078h-2.517578c-2.246364 0-4.6422827 1.070615-6.5527349 2.777344-1.9104522 1.706728-3.3496094 4.11354-3.3496093 6.857421v63.460939c0 2.743882 1.4391572 5.15069 3.3496093 6.85742s4.3063709 2.77735 6.5527349 2.77735h2.517578c.100085.0336.204964.0508.310546.0508h49.867188.580078 45.636722c.10558-.00002.21046-.0172.31054-.0508h2.51758c2.24637 0 4.64228-1.07062 6.55274-2.77735 1.91045-1.70673 3.34961-4.113541 3.34961-6.85742v-63.460938c0-2.743882-1.43916-5.150693-3.34961-6.857421-1.91046-1.706729-4.30638-2.777344-6.55274-2.777344h-2.51758c-.10008-.03362-.20496-.05077-.31054-.05078h-45.636722-.580078zm4.552201 9.396938 44.95336.288609h.580078 41.256789c.0966.03106.19739.04688.29883.04687h2.73046c1.53667 0 1.49189.802137 3.04038 2.123046 1.54849 1.32091 2.58478 3.094212 2.61133 4.964844l.70564 49.712112c.0266 1.870631-1.06284 3.643934-2.61133 4.964843-1.54849 1.320901-1.50371 2.123051-3.04038 2.123051h-2.73046c-.10351.000001-.20636.01647-.30469.0488h-41.250935-.580078l-44.949453-.288609c-.09833-.03233-.201179-.0488-.304688-.0488h-2.730469c-1.536659 0-1.949183-.905499-3.497674-2.22641-1.54849-1.320904-2.584775-3.094207-2.611328-4.964838l-.705634-49.712112c-.02655-1.87063 1.062837-3.643934 2.611329-4.964844 1.54849-1.320909 1.961014-2.019687 3.497673-2.019687h2.730469c.102096.000211.203591-.01561.300781-.04687z" fill="url(#a)" filter="url(#b)" transform="matrix(.91347099 0 0 .75019264 5.397104 15.612878)"/><path d="m76.032372 44h7.967629v40h-7.967629z" fill="#ebebec" fill-opacity=".996078" filter="url(#d)" transform="matrix(.93936408 0 0 .99999985 1.09341 8.000004)"/><path d="m65 64.339745-15 8.660254v-17.320508z" fill="#ebebec" fill-opacity=".996078" filter="url(#d)" transform="matrix(1.7001835 0 0 2.2951449 -44.576151 -73.679638)"/><g fill="#47474b"><path d="m72.279465 48h7.720533v39.999996h-7.720533z"/><path d="m65 64.339745-15 8.660254v-17.320508z" transform="matrix(1.7001836 0 0 2.295145 -45.00918 -79.545582)"/></g></g></svg>

<?xml version="1.0" encoding="UTF-8" standalone="no"?>
<!-- Created with Inkscape (http://www.inkscape.org/) -->

<svg
   xmlns:dc="http://purl.org/dc/elements/1.1/"
   xmlns:cc="http://creativecommons.org/ns#"
   xmlns:rdf="http://www.w3.org/1999/02/22-rdf-syntax-ns#"
   xmlns:svg="http://www.w3.org/2000/svg"
   xmlns="http://www.w3.org/2000/svg"
   xmlns:xlink="http://www.w3.org/1999/xlink"
   xmlns:sodipodi="http://sodipodi.sourceforge.net/DTD/sodipodi-0.dtd"
   xmlns:inkscape="http://www.inkscape.org/namespaces/inkscape"
   version="1.1"
   id="svg2"
   width="128"
   height="128"
   viewBox="0 0 128 128"
   sodipodi:docname="sc_navigationbar.svg"
   inkscape:version="0.92.3 (unknown)"
   inkscape:export-filename="/home/rizmut/Dokumen/Rizmut/Github/libreoffice-style-karasa-jaga/build/images_karasa_jaga/cmd/sc_navigationbar.png"
   inkscape:export-xdpi="12"
   inkscape:export-ydpi="12">
  <metadata
     id="metadata8">
    <rdf:RDF>
      <cc:Work
         rdf:about="">
        <dc:format>image/svg+xml</dc:format>
        <dc:type
           rdf:resource="http://purl.org/dc/dcmitype/StillImage" />
        <dc:title></dc:title>
      </cc:Work>
    </rdf:RDF>
  </metadata>
  <defs
     id="defs6">
    <linearGradient
       inkscape:collect="always"
       id="linearGradient1084">
      <stop
         style="stop-color:#b3b3b7;stop-opacity:1;"
         offset="0"
         id="stop1080" />
      <stop
         style="stop-color:#e5e5e5;stop-opacity:0.99607843"
         offset="1"
         id="stop1082" />
    </linearGradient>
    <linearGradient
       inkscape:collect="always"
       id="linearGradient838">
      <stop
         style="stop-color:#ffffff;stop-opacity:1;"
         offset="0"
         id="stop834" />
      <stop
         style="stop-color:#bbbbbb;stop-opacity:1"
         offset="1"
         id="stop836" />
    </linearGradient>
    <linearGradient
       inkscape:collect="always"
       xlink:href="#linearGradient838"
       id="linearGradient840"
       x1="26.221916"
       y1="59.536545"
       x2="96.5784"
       y2="57.715343"
       gradientUnits="userSpaceOnUse"
       gradientTransform="rotate(90,65.170062,65.407638)" />
    <filter
       inkscape:collect="always"
       style="color-interpolation-filters:sRGB"
       id="filter894"
       x="-0.004120197"
       width="1.0082404"
       y="-0.0057484538"
       height="1.0114969">
      <feGaussianBlur
         inkscape:collect="always"
         stdDeviation="0.13885547"
         id="feGaussianBlur896" />
    </filter>
    <linearGradient
       inkscape:collect="always"
       xlink:href="#linearGradient1084"
       id="linearGradient1086"
       x1="72.618614"
       y1="101.35709"
       x2="73.819366"
       y2="47.875233"
       gradientUnits="userSpaceOnUse"
       gradientTransform="matrix(0.93615599,0,0,0.96248373,3.8439807,-6.4525432)" />
    <filter
       inkscape:collect="always"
       style="color-interpolation-filters:sRGB"
       id="filter1434"
       x="-0.025243051"
       width="1.0504861"
       y="-0.022873627"
       height="1.0457473">
      <feGaussianBlur
         inkscape:collect="always"
         stdDeviation="0.38122712"
         id="feGaussianBlur1436" />
    </filter>
  </defs>
  <sodipodi:namedview
     pagecolor="#ffffff"
     bordercolor="#666666"
     borderopacity="1"
     objecttolerance="10"
     gridtolerance="10"
     guidetolerance="10"
     inkscape:pageopacity="0"
     inkscape:pageshadow="2"
     inkscape:window-width="1366"
     inkscape:window-height="706"
     id="namedview4"
     showgrid="true"
     inkscape:snap-page="true"
     inkscape:snap-global="true"
     inkscape:zoom="3.4640154"
     inkscape:cx="46.839168"
     inkscape:cy="59.455873"
     inkscape:window-x="0"
     inkscape:window-y="0"
     inkscape:window-maximized="1"
     inkscape:current-layer="svg2"
     inkscape:snap-smooth-nodes="true">
    <inkscape:grid
       type="xygrid"
       id="grid834"
       spacingx="8"
       spacingy="8"
       empspacing="2" />
  </sodipodi:namedview>
  <path
     style="opacity:1;fill:#8b8b91;fill-opacity:0.99586056;stroke:none;stroke-width:1.09970057;stroke-linecap:round;stroke-linejoin:bevel;stroke-miterlimit:4;stroke-dasharray:none;stroke-dashoffset:0;stroke-opacity:1"
     d="m 14.820178,23.999992 v 0.04989 H 11.698325 C 7.4609649,24.049882 9.3677925e-7,27.871183 9.3677925e-7,32.6167 V 95.384984 C 9.3677925e-7,100.13052 7.4609649,103.95009 11.698325,103.95009 h 3.121853 V 104 h 49.180833 49.178809 v -0.0499 h 3.12185 C 120.53903,103.9501 128,100.13053 128,95.384992 V 32.616694 c 0,-4.745515 -7.46097,-8.566817 -11.69833,-8.566817 h -3.12185 v -0.04988 H 64.001011 Z"
     id="path827"
     inkscape:connector-curvature="0" />
  <path
     sodipodi:nodetypes="ccssssccccccssssccccc"
     style="opacity:1;fill:url(#linearGradient1086);fill-opacity:1;stroke:none;stroke-width:0.89515007;stroke-linecap:round;stroke-linejoin:bevel;stroke-miterlimit:4;stroke-dasharray:none;stroke-dashoffset:0;stroke-opacity:1"
     d="m 19.005316,32.734903 v 0.03923 h -2.647565 c -3.593265,-4e-6 -8.3577515,2.984839 -8.3577515,6.692769 v 49.044122 c 0,3.707941 4.7644865,6.692786 8.3577515,6.692786 h 2.647565 v 0.03927 h 42.938841 0.327288 46.683465 v -0.03927 h 2.64758 c 3.59325,0 8.35773,-2.984845 8.35773,-6.692786 V 39.46692 c 0,-3.707928 -4.76448,-6.692772 -8.35773,-6.692772 h -2.64758 v -0.03922 H 62.271445 61.944157 Z"
     id="path904"
     inkscape:connector-curvature="0" />
  <path
     transform="matrix(0.91347099,0,0,0.75019264,5.3971037,15.612878)"
     style="opacity:1;fill:url(#linearGradient840);fill-opacity:1;stroke:none;stroke-width:1.05240166;stroke-linecap:round;stroke-linejoin:bevel;stroke-miterlimit:4;stroke-dasharray:none;stroke-dashoffset:0;stroke-opacity:1;filter:url(#filter894)"
     d="m 16.195312,22.822266 c -0.105581,1.2e-5 -0.21046,0.01716 -0.310546,0.05078 h -2.517578 c -2.246364,0 -4.6422827,1.070615 -6.5527349,2.777344 -1.9104522,1.706728 -3.3496094,4.11354 -3.3496093,6.857421 V 95.96875 c 0,2.743882 1.4391572,5.15069 3.3496093,6.85742 1.9104521,1.70673 4.3063709,2.77735 6.5527349,2.77735 h 2.517578 c 0.100085,0.0336 0.204964,0.0508 0.310546,0.0508 H 66.0625 66.642578 112.2793 c 0.10558,-2e-5 0.21046,-0.0172 0.31054,-0.0508 h 2.51758 c 2.24637,0 4.64228,-1.07062 6.55274,-2.77735 1.91045,-1.70673 3.34961,-4.113541 3.34961,-6.85742 V 32.507812 c 0,-2.743882 -1.43916,-5.150693 -3.34961,-6.857421 -1.91046,-1.706729 -4.30638,-2.777344 -6.55274,-2.777344 h -2.51758 c -0.10008,-0.03362 -0.20496,-0.05077 -0.31054,-0.05078 H 66.642578 66.0625 Z m 4.552201,9.396938 44.95336,0.288609 h 0.580078 41.256789 c 0.0966,0.03106 0.19739,0.04688 0.29883,0.04687 h 2.73046 c 1.53667,0 1.49189,0.802137 3.04038,2.123046 1.54849,1.32091 2.58478,3.094212 2.61133,4.964844 l 0.70564,49.712112 c 0.0266,1.870631 -1.06284,3.643934 -2.61133,4.964843 -1.54849,1.320901 -1.50371,2.123051 -3.04038,2.123051 h -2.73046 c -0.10351,1e-6 -0.20636,0.01647 -0.30469,0.0488 H 66.986585 66.406507 L 21.457054,96.20277 c -0.09833,-0.03233 -0.201179,-0.0488 -0.304688,-0.0488 h -2.730469 c -1.536659,0 -1.949183,-0.905499 -3.497674,-2.22641 -1.54849,-1.320904 -2.584775,-3.094207 -2.611328,-4.964838 L 11.607261,39.25061 c -0.02655,-1.87063 1.062837,-3.643934 2.611329,-4.964844 1.54849,-1.320909 1.961014,-2.019687 3.497673,-2.019687 h 2.730469 c 0.102096,2.11e-4 0.203591,-0.01561 0.300781,-0.04687 z"
     id="path829"
     inkscape:connector-curvature="0"
     sodipodi:nodetypes="ccssssssccccccscsscsccccccccccsssscsccccccscssssccc" />
  <rect
     y="44"
     x="76.032372"
     height="40"
     width="7.9676285"
     id="rect1422"
     style="opacity:1;fill:#ebebec;fill-opacity:0.99607843;stroke:none;stroke-width:6.30362272;stroke-linecap:square;stroke-linejoin:round;stroke-miterlimit:4;stroke-dasharray:none;stroke-dashoffset:0;stroke-opacity:1;filter:url(#filter1434)"
     transform="matrix(0.93936408,0,0,0.99999985,1.09341,8.0000043)" />
  <path
     inkscape:transform-center-y="-1.6000777e-06"
     transform="matrix(1.7001835,0,0,2.2951449,-44.576151,-73.679638)"
     inkscape:transform-center-x="-4.9312667"
     d="M 65,64.339745 50,72.999999 50,55.679491 Z"
     inkscape:randomized="0"
     inkscape:rounded="0"
     inkscape:flatsided="true"
     sodipodi:arg2="1.0471976"
     sodipodi:arg1="0"
     sodipodi:r2="5"
     sodipodi:r1="10"
     sodipodi:cy="64.339745"
     sodipodi:cx="55"
     sodipodi:sides="3"
     id="path1424"
     style="opacity:1;fill:#ebebec;fill-opacity:0.99607843;stroke:none;stroke-width:6;stroke-linecap:square;stroke-linejoin:round;stroke-miterlimit:4;stroke-dasharray:none;stroke-dashoffset:0;stroke-opacity:1;filter:url(#filter1434)"
     sodipodi:type="star" />
  <rect
     style="opacity:1;fill:#47474b;fill-opacity:1;stroke:none;stroke-width:6.20510769;stroke-linecap:square;stroke-linejoin:round;stroke-miterlimit:4;stroke-dasharray:none;stroke-dashoffset:0;stroke-opacity:1"
     id="rect866"
     width="7.7205334"
     height="39.999996"
     x="72.279465"
     y="48" />
  <path
     sodipodi:type="star"
     style="opacity:1;fill:#47474b;fill-opacity:1;stroke:none;stroke-width:6;stroke-linecap:square;stroke-linejoin:round;stroke-miterlimit:4;stroke-dasharray:none;stroke-dashoffset:0;stroke-opacity:1"
     id="path868"
     sodipodi:sides="3"
     sodipodi:cx="55"
     sodipodi:cy="64.339745"
     sodipodi:r1="10"
     sodipodi:r2="5"
     sodipodi:arg1="0"
     sodipodi:arg2="1.0471976"
     inkscape:flatsided="true"
     inkscape:rounded="0"
     inkscape:randomized="0"
     d="M 65,64.339745 50,72.999999 50,55.679491 Z"
     inkscape:transform-center-x="-4.2504617"
     transform="matrix(1.7001836,0,0,2.295145,-45.00918,-79.545582)" />
</svg>
